X: 3
T: The Bag Of Spuds
R: reel
M: 4/4
L: 1/8
K: Ador
|:A2eA cAeA|ABcd (3efe dB|~G2 dG BGdB|GB~B2 GBdB|A2eA cAeA|ABcd (3efe dB|ABcd eg~g2|dBGA BA ~A2:||:a2ea ~a2ea|agbg agef|(3gfe dc BGBd|gfga bgea|a2ea ~a2(3efg|agbg agef|gedc BGBd| gedB BAA2:||


Tune 579	Setting 29629

